!!!!SEGMENT: pl-kk--kk-i-2--027-001_anonim--verbum-caro-factum-est-prima-pars-verbum-caro-factum-est.krn
!!!cenid: 16xx:1645
!!!COM: Anonim
!!!COM-rismid: pe30004985
!!!CDT:
!!!CNT:
!!!OPR: Verbum caro factum est
!!!OTL: Prima pars - Verbum caro factum est
!!!OMV: 001
!!!PDT:
!!!AGN: Sacred
!!!SMS-siglum: PL-Kk
!!!SMS-shelfmark: Kk.I.2
!!!SMS-shelfwork: 027-001 M
!!!NIFC-rismid: 300258043
!!!URL-scan: http://repozytorium.nifc.pl/skany/pl-kk-nut--i-2
!!!ONB-nifc: Części motetu: 1. Verbum caro factum est, 2. Plenum gratiae, 3. In principio erat verbum; skany: C: 0053-0054; A: 0155-0156; T: 0257-0258; B: 0355-0356;
!!!AIN: 1 alto 1 bass 1 soprn 1 tenor
!!!key: G:mix
**kern	**text	**kern	**text	**kern	**text	**kern	**text
*group1	*	*group1	*	*group1	*	*group1	*
*part4	*part4	*part3	*part3	*part2	*part2	*part1	*part1
*staff4	*staff4	*staff3	*staff3	*staff2	*staff2	*staff1	*staff1
*I"BASSVS	*	*I"TENOR	*	*I"ALTVS	*	*I"DISCANTVS	*
*I'[B]	*	*I'[T]	*	*I'[A]	*	*I'[S]	*
*Ibass	*	*Itenor	*	*Ialto	*	*Isoprn	*
*ICvox	*	*ICvox	*	*ICvox	*	*ICvox	*
*clefF4	*	*clefC4	*	*clefC3	*	*clefC1	*
*k[]	*	*k[]	*	*k[]	*	*k[]	*
*G:mix	*	*G:mix	*	*G:mix	*	*G:mix	*
*M2/1	*	*M2/1	*	*M2/1	*	*M2/1	*
*met(C|)	*	*met(C|)	*	*met(C|)	*	*met(C|)	*
=1-	=1-	=1-	=1-	=1-	=1-	=1-	=1-
!LO:TX:t=P:problem=all\middle&colon; global	!	!	!	!LO:TX:t=P:problem=all\middle&colon; global	!	!	!
00r	.	00r	.	0r	.	0d	Ver-
=2-	=2-	=2-	=2-	=2-	=2-	=2-	=2-
*	*	*	*	*lig	*	*	*
.	.	.	.	0G	Ver-	0g	.
=3-	=3-	=3-	=3-	=3-	=3-	=3-	=3-
00r	.	00r	.	0c	.	0e	-bum
*	*	*	*	*Xlig	*	*	*
=4-	=4-	=4-	=4-	=4-	=4-	=4-	=4-
.	.	.	.	0A	-bum	0f	.
=5-	=5-	=5-	=5-	=5-	=5-	=5-	=5-
00r	.	0r	.	2.B/	ca-	1g	.
.	.	.	.	4c/	-ro	.	.
.	.	.	.	1d	.	2f/	ca-
.	.	.	.	.	.	2.a/	-ro
=6-	=6-	=6-	=6-	=6-	=6-	=6-	=6-
.	.	1r	.	2c/	fac-	.	.
.	.	.	.	.	.	4g/	.
.	.	.	.	2B/	.	2.g/	fac-
.	.	1D	Ver-	1A	-tum	.	.
.	.	.	.	.	.	8f/L	-tu(m)
.	.	.	.	.	.	8e/J	.
!	!	!	!	!	!	!LO:SIC:v:s:t=2f#/	!
.	.	.	.	.	.	2f/	eſt
=7-	=7-	=7-	=7-	=7-	=7-	=7-	=7-
00r	.	0G	.	2G/	.	1g	.
*	*	*	*	*lig	*	*	*
.	.	.	.	1B	eſt	.	.
.	.	.	.	.	.	2r	.
.	.	.	.	1c\	.	2.e/	fa-
*	*	*	*	*Xlig	*	*	*
=8-	=8-	=8-	=8-	=8-	=8-	=8-	=8-
.	.	1E	-bu(m)	.	.	.	.
.	.	.	.	.	.	4f/	.
.	.	.	.	2B/	.	2g/	.
.	.	1F	.	1A	.	1a	.
=9-	=9-	=9-	=9-	=9-	=9-	=9-	=9-
00r	.	2.G/	.	2.B/	.	1d	.
.	.	4A/	.	4c/	.	.	.
.	.	1B	.	1d	.	1g	.
=10-	=10-	=10-	=10-	=10-	=10-	=10-	=10-
.	.	2c/	.	2e/	.	2a/	.
.	.	2B/	.	2d/	.	1g	.
.	.	1A	.	1c	.	.	.
!	!	!	!	!	!	!LO:SIC:v:s:t=2f#/	!
.	.	.	.	.	.	2f/	-ctu(m)
=11-	=11-	=11-	=11-	=11-	=11-	=11-	=11-
*	*	*	*	*lig	*	*	*
0GG	Ver-	00G\	.	0B	.	0g	eſt.
=12-	=12-	=12-	=12-	=12-	=12-	=12-	=12-
0C	-bu(m)	.	.	0c	.	2r	.
*	*	*	*	*	*	*custos:g	*
!	!	!	!	!	!	!LO:LB:g=original	!
*	*	*	*	*	*	*	*ij
.	.	.	.	.	.	2.g/	Ver-
.	.	.	.	.	.	4f/	-bum
.	.	.	.	.	.	1e/	ca-
*	*	*	*	*Xlig	*	*	*
=13-	=13-	=13-	=13-	=13-	=13-	=13-	=13-
1AA	ca-	00r	.	2r	.	.	.
.	.	.	.	1A	.	4d/	-ro
.	.	.	.	.	.	4c/	fac-
1BB	-ro	.	.	.	.	1d	-tu(m)
.	.	.	.	2G/	.	.	.
=14-	=14-	=14-	=14-	=14-	=14-	=14-	=14-
0C	.	.	.	2.A/	.	1c	eſt
.	.	.	.	4B/	.	.	.
*	*	*	*	*	*	*	*Xij
*	*	*	*	*	*	*	*ij
.	.	.	.	1c	.	1cc	Ver-
*	*	*	*	*custos:d	*	*	*
!	!	!	!	!LO:LB:g=original	!	!	!
=15-	=15-	=15-	=15-	=15-	=15-	=15-	=15-
00r	.	0G	ca-	1d	.	1b	.
*	*	*	*	*	*	*2\right	*
.	.	.	.	2B/	.	2b\	.
.	.	.	.	2.e\	.	1g\	.
=16-	=16-	=16-	=16-	=16-	=16-	=16-	=16-
.	.	0G	-ro	.	.	.	.
.	.	.	.	4d/	.	.	.
.	.	.	.	1c	.	4f/	.
.	.	.	.	.	.	4e/	.
.	.	.	.	.	.	1d	.
.	.	.	.	2B/	.	.	.
=17-	=17-	=17-	=17-	=17-	=17-	=17-	=17-
0r	.	0A	.	1.c	.	2c/	.
.	.	.	.	.	.	1e	.
.	.	.	.	2d/	.	2f/	.
=18-	=18-	=18-	=18-	=18-	=18-	=18-	=18-
2.C/	fac-	00c	.	1e	.	1g	.
4D/	-tu(m)	.	.	.	.	.	.
2E/	.	.	.	2r	.	2e/	.
1F\	eſt	.	.	2.A/	.	1a\	.
=19-	=19-	=19-	=19-	=19-	=19-	=19-	=19-
.	.	.	.	.	.	.	.
.	.	.	.	4B/	.	.	.
4E/	.	.	.	2c/	.	4g/	.
4D/	.	.	.	.	.	4f/	.
2E/	.	.	.	1G	.	2e/	.
2C/	.	.	.	.	.	1g\	.
=20-	=20-	=20-	=20-	=20-	=20-	=20-	=20-
0D	.	0A	fac-	0d	.	.	.
.	.	.	.	.	.	4f/	.
.	.	.	.	.	.	4e/	.
.	.	.	.	.	.	1f	.
=21-	=21-	=21-	=21-	=21-	=21-	=21-	=21-
*	*ij	*	*	*	*	*	*
2.GG/	Ver-	0G	.	2.B/	.	00g	-bum
4AA/	-bu(m)	.	.	4c/	.	.	.
2BB/	ca-	.	.	2d/	.	.	.
1C/	-ro	.	.	1e\	.	.	.
*	*	*	*	*	*	*	*Xij
=22-	=22-	=22-	=22-	=22-	=22-	=22-	=22-
.	.	0G	-tu(m)	.	.	.	.
4BB/	fac-	.	.	4d/	.	.	.
4AA/	.	.	.	4c/	.	.	.
2BB/	-tu(m)	.	.	2d/	.	.	.
2GG/	.	.	.	2D/	.	.	.
*custos:D	*	*	*	*	*	*	*
!LO:LB:g=original	!	!	!	!	!	!	!
=23-	=23-	=23-	=23-	=23-	=23-	=23-	=23-
*	*	*	*	*lig	*	*	*
1D	.	0A	.	1F	.	1r	.
2r	.	.	.	1E	.	1.cc	ca-
1C/	.	.	.	.	.	.	.
*	*	*	*	*Xlig	*	*	*
=24-	=24-	=24-	=24-	=24-	=24-	=24-	=24-
.	.	0c	.	2r	.	.	.
1F	.	.	.	2.A/	.	1a	-ro
.	.	.	.	4B/	.	.	.
*	*	*	*	*	*	*custos:g	*
!	!	!	!	!	!	!LO:LB:g=original	!
1E\	.	.	.	2c/	.	1g\	fa-
=25-	=25-	=25-	=25-	=25-	=25-	=25-	=25-
*	*	*	*	*lig	*	*	*
.	.	0G	eſt	1C	.	.	.
4D/	.	.	.	.	.	4f/	.
4C/	.	.	.	.	.	4e/	.
1BB	.	.	.	1D	.	1d	.
*	*	*	*	*Xlig	*	*	*
=26-	=26-	=26-	=26-	=26-	=26-	=26-	=26-
0AA	eſt	0A	.	2E/	.	2.c/	.
.	.	.	.	2C/	.	.	.
.	.	.	.	.	.	4d/	.
*	*	*	*	*custos:c	*	*	*
!	!	!	!	!LO:LB:g=original	!	!	!
.	.	.	.	2c/	.	2e/	.
.	.	.	.	1c/	.	1f/	.
*	*Xij	*	*	*	*	*	*
=27-	=27-	=27-	=27-	=27-	=27-	=27-	=27-
0r	.	0G	.	.	.	.	.
.	.	.	.	4B/	.	4e/	.
.	.	.	.	4A/	.	4d/	-ctu(m)
.	.	.	.	1B	.	1e	eſt
=28-	=28-	=28-	=28-	=28-	=28-	=28-	=28-
!	!	!	!	!LO:TX:t=P:problem=brakująca pauza	!	!	!
*	*ij	*	*	*	*	*	*
2.A\	Ver-	2.F/	.	1ryy	.	1f	.
4G\	-bu(m)	4G/	.	.	.	.	.
2F\	ca-	2A/	.	2d/	.	1r	.
2E/	-ro	2G/	.	2c/	.	.	.
*	*	*custos:F	*	*	*	*	*
!	!	!LO:LB:g=original	!	!	!	!	!
=29-	=29-	=29-	=29-	=29-	=29-	=29-	=29-
2D/	fac-	2F/	.	2B/	.	0r	.
2C/	-tu(m)	2E/	.	2A/	.	.	.
1BB	.	1D	.	1G	.	.	.
=30-	=30-	=30-	=30-	=30-	=30-	=30-	=30-
1AA	.	1E	.	4A/	.	00a	et
.	.	.	.	4B/	.	.	.
.	.	.	.	4c/	.	.	.
.	.	.	.	4d/	.	.	.
2r	.	2E/	.	2e\	.	.	.
1AA/	.	2.A/	.	2.f\	.	.	.
=31-	=31-	=31-	=31-	=31-	=31-	=31-	=31-
.	.	.	.	.	.	.	.
.	.	4G/	.	4e\	.	.	.
2D/	.	2F/	.	1d	.	.	.
1AA	eſt	1E	.	.	.	.	.
!	!	!	!	!LO:SIC:v:s:t=2c#/	!	!	!
.	.	.	.	2c/	.	.	.
*	*Xij	*	*	*	*	*	*
=32-	=32-	=32-	=32-	=32-	=32-	=32-	=32-
2.A\	et	1D	.	1d	.	0f	.
4G\	ha-	.	.	.	.	.	.
*	*	*2\right	*	*	*	*	*
2.F\	-bi-	2.A/	et	2.c/	.	.	.
8E/L	-ta-	4B/	.	4d\	.	.	.
8D/J	.	.	.	.	.	.	.
=33-	=33-	=33-	=33-	=33-	=33-	=33-	=33-
2.C/	-bit	2.c\	.	2.e\	.	0g	ha-
4D/	.	4B/	.	4d\	.	.	.
1E	.	4G/	.	4B/	.	.	.
.	.	4A/	.	4c/	.	.	.
.	.	4B/	ha-	4d\	.	.	.
.	.	4c/	-bi-	4e\	.	.	.
=34-	=34-	=34-	=34-	=34-	=34-	=34-	=34-
2.D/	.	2.d\	.	2.f\	.	0a	.
4E\	.	4c/	.	4e\	.	.	.
1F	.	4A/	.	2.c\	.	.	.
.	.	4B/	.	.	.	.	.
.	.	1c\	-ta-	.	.	.	.
.	.	.	.	4d\	.	.	.
=35-	=35-	=35-	=35-	=35-	=35-	=35-	=35-
0E	.	.	.	0e	.	0g	.
.	.	4B/	-bit	.	.	.	.
.	.	4A/	.	.	.	.	.
.	.	1B	.	.	.	.	.
*custos:AA	*	*	*	*	*	*	*
!LO:LB:g=original	!	!	!	!	!	!	!
=36-	=36-	=36-	=36-	=36-	=36-	=36-	=36-
1.AA	.	1A	.	1c	.	0a	-bi-
.	.	2r	.	2r	.	.	.
*	*	*	*	*custos:A	*	*	*
!	!	!	!	!LO:LB:g=original	!	!	!
1D\	.	2.F/	in	2.A/	.	.	.
=37-	=37-	=37-	=37-	=37-	=37-	=37-	=37-
.	.	.	.	.	.	0a	-ta-
.	.	4G/	.	4B/	.	.	.
4C/	.	4A/	.	4c/	.	.	.
4BB/	.	4B/	.	4d/	.	.	.
2AA/	.	2c/	.	2e\	.	.	.
2A\	.	1c\	no-	1f\	.	.	.
=38-	=38-	=38-	=38-	=38-	=38-	=38-	=38-
1F	.	.	.	.	.	0cc	.
.	.	4B/	.	4e\	.	.	.
.	.	4A/	.	4d\	.	.	.
1C	.	1G	.	1e	.	.	.
*	*	*custos:A	*	*	*	*	*
!	!	!LO:PB:g=original	!	!	!	!	!
=39-	=39-	=39-	=39-	=39-	=39-	=39-	=39-
1.F	.	2.A/	.	1f	.	00a	.
.	.	4B/	.	.	.	.	.
.	.	2c/	.	2r	.	.	.
1D\	in	2.d\	.	2.f\	.	.	.
=40-	=40-	=40-	=40-	=40-	=40-	=40-	=40-
.	.	.	.	.	.	.	.
.	.	4c/	.	4e\	.	.	.
2E/	no-	1c	.	1e	.	.	.
1F	-bis	.	.	.	.	.	.
.	.	4B/	.	2d/	.	.	.
.	.	4A/	.	.	.	.	.
=41-	=41-	=41-	=41-	=41-	=41-	=41-	=41-
0E	.	2.B/	.	2.e\	.	0g	.
.	.	4A/	.	4d/	.	.	.
.	.	2.G/	.	1B	.	.	.
.	.	4F/	.	.	.	.	.
=42-	=42-	=42-	=42-	=42-	=42-	=42-	=42-
*	*	*	*	*lig	*	*	*
1AA	.	1E	.	1.c	.	1a	.
1r	.	2A/	.	.	.	1f	.
.	.	1B\	.	1d\	.	.	.
*	*	*	*	*Xlig	*	*	*
=43-	=43-	=43-	=43-	=43-	=43-	=43-	=43-
0r	.	.	.	.	.	1g	.
.	.	1c	.	1e	.	.	.
.	.	.	.	.	.	1a	.
.	.	2d\	.	2f\	.	.	.
=44-	=44-	=44-	=44-	=44-	=44-	=44-	=44-
2.C/	.	0G	.	1e	.	1cc	.
4D/	.	.	.	.	.	.	.
1E	.	.	.	1B	.	1b	.
=45-	=45-	=45-	=45-	=45-	=45-	=45-	=45-
1F	.	2D/	.	2r	.	2a/	.
.	.	2A/	.	2A/	.	2cc\	.
2G\	.	2B/	.	2G/	.	2b/	.
*	*	*	*	*	*	*custos:a	*
!	!	!	!	!	!	!LO:LB:g=original	!
2F\	.	2c/	.	2A/	.	2.a/	-bit
=46-	=46-	=46-	=46-	=46-	=46-	=46-	=46-
1E	.	1G	.	2B/	.	.	.
.	.	.	.	.	.	4g/	.
.	.	.	.	2c/	.	2.g/	in
*	*	*	*	*custos:d	*	*	*
!	!	!	!	!LO:LB:g=original	!	!	!
1D	.	1A	-bis	1d	.	.	.
.	.	.	.	.	.	8f/L	no-
.	.	.	.	.	.	8e/J	.
.	.	.	.	.	.	2f/	-bis
=47-	=47-	=47-	=47-	=47-	=47-	=47-	=47-
2.GG/	.	0G	.	2.B/	.	00g	.
4AA/	.	.	.	4c/	.	.	.
4BB/	.	.	.	4d/	.	.	.
4GG/	.	.	.	4B/	.	.	.
2.C/	.	.	.	2.e\	.	.	.
=48-	=48-	=48-	=48-	=48-	=48-	=48-	=48-
.	.	1G	.	.	.	.	.
4D/	.	.	.	4d/	.	.	.
4E/	.	.	.	2c/	.	.	.
4C/	.	.	.	.	.	.	.
1E	.	2r	.	1B	.	.	.
.	.	2G/	.	.	.	.	.
*custos:F	*	*	*	*	*	*	*
!LO:PB:g=original	!	!	!	!	!	!	!
=49-	=49-	=49-	=49-	=49-	=49-	=49-	=49-
2F/	no-	2F/	.	2A/	.	0r	.
1G	.	2E/	.	2G/	.	.	.
.	.	1D	.	1A	.	.	.
2F/	-bis	.	.	.	.	.	.
=50-	=50-	=50-	=50-	=50-	=50-	=50-	=50-
1G	.	2r	.	2G/	.	1.g	e-
*	*	*custos:G	*	*	*	*	*
!	!	!LO:LB:g=original	!	!	!	!	!
.	.	2G/	cu-	2E/	.	.	.
1r	.	1c	.	1e	.	.	.
.	.	.	.	.	.	4f/	.
.	.	.	.	.	.	4e/	.
=51-	=51-	=51-	=51-	=51-	=51-	=51-	=51-
*	*	*	*	*lig	*	*	*
00r	.	1c	-ius	1e	.	2g/	.
.	.	.	.	.	.	1a	.
.	.	1d	glo-	1f	.	.	.
.	.	.	.	.	.	2b\	-ius
*	*	*	*	*Xlig	*	*	*
=52-	=52-	=52-	=52-	=52-	=52-	=52-	=52-
*	*	*	*	*lig	*	*	*
.	.	1e	-ri-	1g	.	1cc	.
.	.	1d	-am	1f	.	1b	glo
*	*	*	*	*Xlig	*	*	*
=53-	=53-	=53-	=53-	=53-	=53-	=53-	=53-
0r	.	2c/	.	2e\	.	2a/	.
.	.	2B/	.	2d\	.	2.g/	.
.	.	1A	.	1c	.	.	.
.	.	.	.	.	.	8f/L	.
.	.	.	.	.	.	8e/J	.
.	.	.	.	.	.	2f/	ri-
=54-	=54-	=54-	=54-	=54-	=54-	=54-	=54-
0GG	Cu-	0.G	.	0B	.	0g	-am
=55-	=55-	=55-	=55-	=55-	=55-	=55-	=55-
0C	-ius	.	.	2.c/	.	2r	.
.	.	.	.	.	.	2.e/	vi-
.	.	.	.	4B/	.	.	.
*	*	*	*	*lig	*	*	*
.	.	2.E/	.	1G	.	.	.
.	.	.	.	.	.	4f/	.
.	.	.	.	.	.	2g/	.
.	.	4F/	.	.	.	.	.
=56-	=56-	=56-	=56-	=56-	=56-	=56-	=56-
0C	glo-	1G	.	1c	.	1e	.
*	*	*	*	*Xlig	*	*	*
.	.	1E	.	2r	.	2.g/	.
.	.	.	.	2c/	.	.	.
.	.	.	.	.	.	4f/	.
=57-	=57-	=57-	=57-	=57-	=57-	=57-	=57-
0D	-ri-	1F	.	2.A/	.	4d/	.
.	.	.	.	.	.	4e/	.
.	.	.	.	.	.	4f/	.
.	.	.	.	4G/	.	4g/	.
*	*	*	*	*	*	*custos:a	*
!	!	!	!	!	!	!LO:PB:g=original	!
.	.	2D/	vi-	4F/	.	2.a/	-[di]-
.	.	.	.	4D/	.	.	.
.	.	2A/	-di-	2d/	.	.	.
.	.	.	.	.	.	4g/	-mus
=58-	=58-	=58-	=58-	=58-	=58-	=58-	=58-
1E	-am	1G	-mus	2B/	.	1e	.
*	*	*	*	*custos:c	*	*	*
!	!	!	!	!LO:PB:g=original	!	!	!
.	.	.	.	2.c/	.	.	.
1D	.	1F	.	.	.	1r	.
.	.	.	.	4B/	.	.	.
.	.	.	.	2.B/	.	.	.
=59-	=59-	=59-	=59-	=59-	=59-	=59-	=59-
1C	.	1E	.	.	.	1r	.
.	.	.	.	4A/	.	.	.
.	.	.	.	1A	.	.	.
*	*	*	*	*	*	*	*ij
1BB	vi-	1D	.	.	.	1d	vi-
.	.	.	.	2G/	.	.	.
=60-	=60-	=60-	=60-	=60-	=60-	=60-	=60-
1AA	-di-	2.E/	.	2A/	.	2c/	.
.	.	.	.	2c/	.	2e/	.
.	.	4F/	.	.	.	.	.
1BB	-mus	1G	.	1B	.	1d	-di-
=61-	=61-	=61-	=61-	=61-	=61-	=61-	=61-
0C	.	0E	.	1A	.	1c	-mus
.	.	.	.	1.G	.	1r	.
*	*	*	*	*	*	*	*Xij
=62-	=62-	=62-	=62-	=62-	=62-	=62-	=62-
1AA	.	1C	.	.	.	1.cc	vi-
.	.	.	.	4F/	.	.	.
.	.	.	.	4E/	.	.	.
1AA	.	1C	.	1F	.	.	.
.	.	.	.	.	.	4b/	.
.	.	.	.	.	.	4a/	.
=63-	=63-	=63-	=63-	=63-	=63-	=63-	=63-
2GG/	.	2D/	.	2G/	.	2b/	.
2G\	Vi-	2r	.	2B/	.	1g	.
*	*	*	*	*lig	*	*	*
1A	-di-	1r	.	1c	.	.	.
.	.	.	.	.	.	2f/	.
=64-	=64-	=64-	=64-	=64-	=64-	=64-	=64-
*	*	*	*	*	*	*met(3)	*
*	*	*	*	*	*	*Xtuplet	*
1G	-mus	00r	.	1B	.	3.g/	.
.	.	.	.	.	.	6f/	.
.	.	.	.	.	.	6d/	.
.	.	.	.	.	.	6e/	.
*	*	*	*	*Xlig	*	*	*
*	*	*	*	*lig	*	*	*
1F	.	.	.	1A	.	3.f/	.
.	.	.	.	.	.	6e/	.
.	.	.	.	.	.	6c/	.
.	.	.	.	.	.	6d/	.
=65-	=65-	=65-	=65-	=65-	=65-	=65-	=65-
*	*	*	*	*	*	*met(C|)	*
1G	.	.	.	1c	.	2e/	.
.	.	.	.	.	.	1d	.
*	*	*	*	*Xlig	*	*	*
*	*	*	*	*lig	*	*	*
1G	.	.	.	1B	.	.	.
.	.	.	.	.	.	2.g/	.
=66-	=66-	=66-	=66-	=66-	=66-	=66-	=66-
1E	.	00r	.	1G	.	.	.
.	.	.	.	.	.	4f/	.
.	.	.	.	.	.	4e/	.
.	.	.	.	.	.	4d/	.
*	*	*	*	*Xlig	*	*	*
1F	.	.	.	2A/	.	2c/	.
.	.	.	.	1A/	.	1d/	-di-
=67-	=67-	=67-	=67-	=67-	=67-	=67-	=67-
1E	.	.	.	.	.	.	.
.	.	.	.	2G/	.	2c/	.
*lig	*	*	*	*lig	*	*	*
1D	qua-	.	.	1A	.	0d	-mus
=68-	=68-	=68-	=68-	=68-	=68-	=68-	=68-
1G	.	00r	.	1B	.	.	.
*Xlig	*	*	*	*Xlig	*	*	*
*lig	*	*	*	*	*	*	*
1E	-ſi	.	.	4c/	.	1e	.
.	.	.	.	4B/	.	.	.
.	.	.	.	4A/	.	.	.
.	.	.	.	4G/	.	.	.
=69-	=69-	=69-	=69-	=69-	=69-	=69-	=69-
1F	.	.	.	1A	.	2r	.
*	*	*	*	*	*	*custos:d	*
!	!	!	!	!	!	!LO:LB:g=original	!
.	.	.	.	.	.	1d	.
*Xlig	*	*	*	*	*	*	*
1E	.	.	.	1G	.	.	.
.	.	.	.	.	.	2c/	.
*custos:D	*	*custos:F	*	*	*	*	*
!LO:LB:g=original	!	!LO:LB:g=original	!	!	!	!	!
=70-	=70-	=70-	=70-	=70-	=70-	=70-	=70-
2.D/	.	2.F/	qua-	2F/	.	1d	.
.	.	.	.	2D/	.	.	.
4C/	.	4G/	-ſi	.	.	.	.
1AA	.	1A	.	1E	.	2r	.
.	.	.	.	.	.	2c/	qua-
=71-	=71-	=71-	=71-	=71-	=71-	=71-	=71-
2BB/	.	2F/	v-	2D/	.	1d	-ſi
2GG/	.	1G	-ni-	2d/	.	.	.
*	*	*	*	*custos:B	*	*	*
!	!	!	!	!LO:LB:g=original	!	!	!
1D	.	.	.	2B/	.	1d	u-
.	.	2F/	.	2A/	.	.	.
=72-	=72-	=72-	=72-	=72-	=72-	=72-	=72-
4GG/	.	1G	.	2B/	.	1g	-ni-
4AA/	.	.	.	.	.	.	.
4BB/	v-	.	.	2E/	.	.	.
4C/	-ni-	.	.	.	.	.	.
2D/	-gen-	2r	.	2F/	.	2f/	-ge-
2F\	-ti	2A/	-gen-	2f\	.	2.a/	.
=73-	=73-	=73-	=73-	=73-	=73-	=73-	=73-
2G\	.	2B/	.	2d\	.	.	.
.	.	.	.	.	.	4g/	.
2C/	.	2c/	-ti-	2e\	.	1g	.
1D	.	1A	.	2.d\	.	.	.
!	!	!	!	!	!	!LO:SIC:v:s:t=2f#/	!
.	.	.	.	.	.	2f/	-ni-
.	.	.	.	4c/	.	.	.
=74-	=74-	=74-	=74-	=74-	=74-	=74-	=74-
2GG/	.	2G/	-a	2B/	.	1g	-ti
2G\	.	2B/	.	2G/	.	.	.
1A	.	2c/	.	1c	.	2r	.
.	.	2A/	.	.	.	2f/	a
=75-	=75-	=75-	=75-	=75-	=75-	=75-	=75-
2G\	.	2B/	.	2d\	.	1g	.
2.C/	.	1c	.	1.e	.	.	.
.	.	.	.	.	.	1g	pa-
4D/	.	.	.	.	.	.	.
2E\	.	2B/	.	.	.	.	.
=76-	=76-	=76-	=76-	=76-	=76-	=76-	=76-
2.F\	.	1A	pat-	2.c\	.	1a	.
4E/	.	.	.	4d\	.	.	.
1C	a	1G	-re	1.e	.	1cc	.
=77-	=77-	=77-	=77-	=77-	=77-	=77-	=77-
2G\	.	2B/	.	.	.	2b\	.
2F\	pat-	2c/	.	2f\	.	2a\	.
0C	-re	1G	.	0e	.	2.cc\	.
!	!	!	!	!	!	!LO:TX:t=P:4\right:problem	!
.	.	.	.	.	.	4b\	.
=78-	=78-	=78-	=78-	=78-	=78-	=78-	=78-
.	.	2.c/	.	.	.	2a\	.
.	.	.	.	.	.	2.g/	.
.	.	4B/	.	.	.	.	.
1D	.	1A	.	1d	.	.	.
!	!	!	!	!	!	!LO:SIC:v:s:t=8f#/	!
.	.	.	.	.	.	8f/L	.
.	.	.	.	.	.	8e/J	.
!	!	!	!	!	!	!LO:SIC:v:s:t=2f#/	!
.	.	.	.	.	.	2f/	-tre
=79-	=79-	=79-	=79-	=79-	=79-	=79-	=79-
00GG/;>	.	00G/	.	00B;>	.	00g\;<	.
*custos:G	*	*	*	*custos:B	*	*custos:g	*
=-	=-	==	==	=-	=-	=-	=-
*-	*-	*-	*-	*-	*-	*-	*-
!!!system-decoration: [(g1)]
!!!RDF**kern: > = above
!!!RDF**kern: < = below
!!!RDF**kern: l = terminal long
!!!ENC: Filip Voros
!!!END: 2022-01-14
!!!EED: Jędrzej Mróz
!!!EEV: 2022-01-24
